X: 3
T: Tongadale
R: reel
M: 4/4
L: 1/8
K: Emin
|:ef | gfgf eBef | gfgf eceg | fdAd BABd | ABde fedf |
gfgf eBef | gfgf eceg | afAf BABd | AGFG E2 :|
|:DF | GEBE cEBE | dEBE cBAG | FDAD BDAD | cDBD AGDF |
GEBE cEBE | dEBE cBAG | FDAD BDAD | GEED E2 :|


Tune 5473	Setting 24553

